svgs/duotone/folder-tree.svg

<svg xmlns="http://www.w3.org/2000/svg" viewBox="0 0 576 512"><!-- Font Awesome Pro 6.0.0-alpha2 by @fontawesome - https://fontawesome.com License - https://fontawesome.com/license (Commercial License) --><defs><style>.fa-secondary{opacity:.4}</style></defs><path d="M64 16C64 7.125 56.875 0 48 0H16C7.125 0 0 7.125 0 16V416C0 433.625 14.375 448 32 448H256V384H64V160H256V96H64V16Z" class="fa-secondary"/><path d="M544 32H432L400 0H320C302.375 0 288 14.375 288 32V192C288 209.625 302.375 224 320 224H544C561.625 224 576 209.625 576 192V64C576 46.375 561.625 32 544 32ZM544 320H432L400 288H320C302.375 288 288 302.375 288 320V480C288 497.625 302.375 512 320 512H544C561.625 512 576 497.625 576 480V352C576 334.375 561.625 320 544 320Z" class="fa-primary"/></svg>

<svg xmlns="http://www.w3.org/2000/svg" viewBox="0 0 576 512"><!--! Font Awesome Pro 6.3.0 by @fontawesome - https://fontawesome.com License - https://fontawesome.com/license (Commercial License) Copyright 2023 Fonticons, Inc. --><defs><style>.fa-secondary{opacity:.4}</style></defs><path class="fa-primary" d="M544 32h-112l-32-32H320c-17.62 0-32 14.38-32 32v160c0 17.62 14.38 32 32 32h224c17.62 0 32-14.38 32-32V64C576 46.38 561.6 32 544 32zM544 320h-112l-32-32H320c-17.62 0-32 14.38-32 32v160c0 17.62 14.38 32 32 32h224c17.62 0 32-14.38 32-32v-128C576 334.4 561.6 320 544 320z"/><path class="fa-secondary" d="M64 16C64 7.125 56.88 0 48 0h-32C7.125 0 0 7.125 0 16V416c0 17.62 14.38 32 32 32h224v-64H64V160h192V96H64V16z"/></svg>
